img/icons/money.svg

<svg width="58" height="56" viewBox="0 0 58 56" fill="none" xmlns="http://www.w3.org/2000/svg">
<path d="M28.5168 25.4333C23.0309 24.0567 21.2668 22.6333 21.2668 20.4167C21.2668 17.8733 23.7076 16.1 27.7918 16.1C32.0934 16.1 33.6884 18.0833 33.8334 21H39.1743C39.0051 16.9867 36.4676 13.3 31.4168 12.11V7H24.1668V12.04C19.4784 13.02 15.7084 15.96 15.7084 20.4633C15.7084 25.8533 20.3243 28.5367 27.0668 30.1C33.1084 31.5 34.3168 33.5533 34.3168 35.7233C34.3168 37.3333 33.1326 39.9 27.7918 39.9C22.8134 39.9 20.8559 37.7533 20.5901 35H15.2734C15.5634 40.11 19.5268 42.98 24.1668 43.9367V49H31.4168V43.9833C36.1293 43.12 39.8751 40.4833 39.8751 35.7C39.8751 29.0733 34.0026 26.81 28.5168 25.4333Z" fill="white"/>
</svg>

<svg width="58" height="56" fill="none" xmlns="http://www.w3.org/2000/svg"><path d="M28.517 25.433c-5.486-1.376-7.25-2.8-7.25-5.016 0-2.544 2.44-4.317 6.525-4.317 4.301 0 5.896 1.983 6.041 4.9h5.341c-.169-4.013-2.706-7.7-7.757-8.89V7h-7.25v5.04c-4.689.98-8.459 3.92-8.459 8.423 0 5.39 4.616 8.074 11.359 9.637 6.041 1.4 7.25 3.453 7.25 5.623 0 1.61-1.184 4.177-6.525 4.177-4.979 0-6.936-2.147-7.202-4.9h-5.317c.29 5.11 4.254 7.98 8.894 8.937V49h7.25v-5.017c4.712-.863 8.458-3.5 8.458-8.283 0-6.627-5.872-8.89-11.358-10.267z" fill="#fff"/></svg>
